X: 28
T:The King's Jig
M:6/8
L:1/8
R:Jig
K:G
|:D|GGG AGA|Bcd efg|GGG AGA|BGE EDE|
GGG AGA|Bcd efg|dcB AGA|BGG G2:|
|:e|ggg eee|edB def|gfg aga|bag e2 f|
gfg aga|bag efg|dcB AGA|BGG G2:|
|:D|DGG BGG|AGG BGG|efg dcB|AGA BGE|
DGG BGG|AGG BGG|efg dcB|AGF G2:|
|:e|efg fBB|bag fBB|eBB fBB|gfe fBB|
efg fBB|bag fBB|efg fed|(3efg f e2:|

